assets/icons/retouch.svg

<svg width="30" height="30" viewBox="0 0 30 30" fill="none" xmlns="http://www.w3.org/2000/svg">
<path fill-rule="evenodd" clip-rule="evenodd" d="M15.0004 2C21.5716 2 26.8993 7.32677 26.8993 13.8997C26.8993 17.3295 25.449 20.4208 23.1258 22.5927L26.4149 22.5909C26.8957 22.5909 27.2914 22.9543 27.3415 23.4217L27.3469 23.5237C27.3469 24.7109 26.8753 25.8495 26.0358 26.6889C25.1964 27.5284 24.0578 28 22.8706 28H7.12935C5.94217 28 4.80361 27.5284 3.96415 26.6889C3.12468 25.8495 2.65308 24.7109 2.65308 23.5237C2.65308 23.0081 3.07027 22.5909 3.58593 22.5909L6.8742 22.5927C5.68176 21.4807 4.73127 20.1349 4.08203 18.6392C3.43279 17.1436 3.09874 15.5302 3.1007 13.8997C3.1007 7.32677 8.42747 2 15.0004 2ZM25.654 24.2023H4.3469L4.37376 24.3098C4.53722 24.8818 4.87463 25.3888 5.33919 25.7605C5.80375 26.1322 6.37244 26.3501 6.96641 26.3841L7.12935 26.3885H22.8706C23.4934 26.3885 24.0993 26.1857 24.5965 25.8106C25.0937 25.4355 25.4552 24.9086 25.6262 24.3098L25.654 24.2023ZM4.71216 13.8997C4.71216 8.21755 9.31825 3.61146 15.0004 3.61146C20.6817 3.61146 25.2878 8.21755 25.2878 13.8997L25.2833 14.1996C25.2361 15.8538 24.7902 17.4721 23.9835 18.917C23.1767 20.3619 22.033 21.5906 20.6495 22.4987L20.5045 22.5909H9.49462L9.35138 22.4996C7.92514 21.5637 6.75428 20.2876 5.94437 18.7862C5.13447 17.2849 4.71101 15.6056 4.71216 13.8997ZM21.013 13.2319C21.1516 13.3707 21.2348 13.5553 21.247 13.7511C21.2592 13.9469 21.1996 14.1405 21.0792 14.2954L21.0121 14.3715L15.8214 19.5631C15.6766 19.7088 15.4817 19.7937 15.2765 19.8005C15.0712 19.8073 14.8711 19.7355 14.7171 19.5997C14.563 19.4639 14.4666 19.2744 14.4475 19.07C14.4285 18.8655 14.4882 18.6615 14.6146 18.4996L14.6817 18.4235L19.8733 13.2319C19.9481 13.157 20.037 13.0977 20.1347 13.0571C20.2325 13.0166 20.3373 12.9958 20.4431 12.9958C20.549 12.9958 20.6538 13.0166 20.7515 13.0571C20.8493 13.0977 20.9381 13.157 21.013 13.2319ZM20.1302 9.5479C20.2566 9.38599 20.3163 9.18196 20.2973 8.97748C20.2782 8.773 20.1818 8.58351 20.0278 8.44773C19.8737 8.31195 19.6736 8.24012 19.4683 8.24692C19.2631 8.25372 19.0682 8.33865 18.9234 8.48433L9.93508 17.4736L9.86704 17.5497C9.7407 17.7116 9.68095 17.9156 9.7 18.1201C9.71904 18.3246 9.81545 18.5141 9.96952 18.6499C10.1236 18.7856 10.3237 18.8575 10.5289 18.8507C10.7342 18.8439 10.9291 18.7589 11.0738 18.6132L20.0622 9.62399L20.1302 9.5479ZM10.8706 11.9794C11.0094 12.1181 11.0928 12.3027 11.1051 12.4985C11.1175 12.6943 11.058 12.8879 10.9378 13.043L10.8706 13.1191L10.124 13.8648C9.97888 14.0088 9.78445 14.0923 9.5801 14.0983C9.37574 14.1044 9.17674 14.0325 9.02341 13.8972C8.87008 13.762 8.77389 13.5736 8.75433 13.3701C8.73477 13.1665 8.79331 12.9632 8.91807 12.8013L8.98432 12.7261L9.73096 11.9794C9.80579 11.9046 9.89462 11.8452 9.99239 11.8047C10.0902 11.7642 10.195 11.7433 10.3008 11.7433C10.4066 11.7433 10.5114 11.7642 10.6092 11.8047C10.707 11.8452 10.7958 11.9046 10.8706 11.9794ZM15.3827 8.59803C15.509 8.43613 15.5688 8.23209 15.5498 8.02761C15.5307 7.82313 15.4343 7.63364 15.2802 7.49786C15.1262 7.36208 14.9261 7.29025 14.7208 7.29706C14.5156 7.30386 14.3206 7.38878 14.1759 7.53447L11.6629 10.0483L11.5958 10.1244C11.4694 10.2863 11.4097 10.4904 11.4287 10.6949C11.4478 10.8993 11.5442 11.0888 11.6983 11.2246C11.8523 11.3604 12.0524 11.4322 12.2577 11.4254C12.4629 11.4186 12.6578 11.3337 12.8026 11.188L15.3147 8.67502L15.3818 8.59893L15.3827 8.59803Z" fill="#485FC7"/>
</svg>

<svg width="30" height="30" fill="none" xmlns="http://www.w3.org/2000/svg"><path fill-rule="evenodd" clip-rule="evenodd" d="M15 2c6.572 0 11.9 5.327 11.9 11.9 0 3.43-1.451 6.52-3.774 8.693l3.289-.002c.48 0 .876.363.927.83l.005.103A4.476 4.476 0 0 1 22.87 28H7.129a4.476 4.476 0 0 1-4.476-4.476c0-.516.417-.933.933-.933l3.288.002A11.866 11.866 0 0 1 3.101 13.9C3.1 7.327 8.427 2 15 2Zm10.654 22.202H4.347l.027.108a2.867 2.867 0 0 0 2.592 2.074l.163.005h15.742a2.866 2.866 0 0 0 2.755-2.08l.028-.107ZM4.712 13.9C4.712 8.218 9.318 3.61 15 3.61S25.288 8.218 25.288 13.9l-.005.3a10.278 10.278 0 0 1-4.634 8.299l-.145.092H9.495l-.143-.091a10.278 10.278 0 0 1-4.639-8.6Zm16.301-.668a.806.806 0 0 1 .066 1.063l-.067.076-5.19 5.192a.806.806 0 0 1-1.207-1.063l.067-.076 5.191-5.192a.807.807 0 0 1 1.14 0Zm-.883-3.684a.806.806 0 0 0-1.207-1.064l-8.988 8.99-.068.076a.806.806 0 0 0 1.207 1.063l8.988-8.989.068-.076Zm-9.26 2.431a.805.805 0 0 1 .068 1.064l-.067.076-.747.746A.806.806 0 0 1 8.918 12.8l.066-.075.747-.747a.806.806 0 0 1 1.14 0Zm4.513-3.381a.806.806 0 0 0-1.207-1.064l-2.513 2.514-.067.076a.806.806 0 0 0 1.207 1.064l2.512-2.513.067-.076v-.001Z" fill="#485FC7"/></svg>
